X: 36
T:Mony Musk. GS.036
T:Sir Archibald Grant of Monemusk's Reel,aka. GS.036
M:4/4
L:1/8
Q:100
C:Daniel (Donald Dow) 1732 - 1783
S:George Spencer m/s, Leeds,1831
R:Reel
O:England
A:Leeds
N:Published first 1776.  Republished and a little rewritten by the Gow's
N:in the 1790's as a strathspey. ('Scottish Fiddlers and their Music',
N:M.A. Alburger, Victor Gollancz Ltd, 1983
H:1831
Z:vmp.Cherri Graebe
K:A major
f2 | eAcA eAdf | eAcA Bcdf | eAcA cdea | fdBe cA A2 :||:!
 g | aeca eac | 
aedc dbcg | aefa eaca | fdBe cA Ag |! aeca eaca | aedc dbBg | aefa daca
| feBe cA A2||
